packages/ui-icons/svg/Solid/discussion-search.svg

<svg viewBox="0 0 1920 1920" version="1.1" xmlns="http://www.w3.org/2000/svg">
    <path d="M1458.94844,1305.62602 C1563.58502,1168.67679 1626.47541,998.439035 1626.47541,813.237703 C1626.47541,364.764218 1261.71119,0 813.237703,0 C364.764218,0 0,364.764218 0,813.237703 C0,1261.71119 364.764218,1626.47541 813.237703,1626.47541 C998.439035,1626.47541 1168.78523,1563.58502 1305.73446,1458.94844 L1766.67759,1920 L1920,1766.67759 L1458.94844,1305.62602 Z M813.237703,1409.61202 C484.364376,1409.61202 216.863387,1142.0026 216.863387,813.237703 C216.863387,484.472807 484.364376,216.863387 813.237703,216.863387 C1142.11103,216.863387 1409.61202,484.472807 1409.61202,813.237703 C1409.61202,1142.0026 1142.11103,1409.61202 813.237703,1409.61202 L813.237703,1409.61202 Z" stroke="none" stroke-width="1" fill-rule="evenodd"/>
</svg>

<svg viewBox="0 0 1920 1920" version="1.1" xmlns="http://www.w3.org/2000/svg">
    <path d="M1458.948 1305.626c104.637-136.95 167.527-307.187 167.527-492.388C1626.475 364.764 1261.711 0 813.238 0 364.764 0 0 364.764 0 813.238c0 448.473 364.764 813.237 813.238 813.237 185.201 0 355.547-62.89 492.496-167.527L1766.678 1920 1920 1766.678l-461.052-461.052zm-645.71 103.986c-328.874 0-596.375-267.61-596.375-596.374 0-328.765 267.501-596.375 596.375-596.375 328.873 0 596.374 267.61 596.374 596.375s-267.501 596.374-596.374 596.374z" stroke="none" stroke-width="1" fill-rule="evenodd"/>
</svg>
